public/logo.svg

<svg width="1761" height="390" viewBox="0 0 1761 390" fill="none" xmlns="http://www.w3.org/2000/svg">
<path d="M1432.39 148.611V64.9789H1321.2V1.0246H1237.57V64.9789H1178.54V148.611H1237.57V270.616C1237.57 339.49 1289.72 388.686 1358.59 388.686H1412.71V305.053H1378.27C1343.83 305.053 1321.2 285.375 1321.2 250.938V148.611H1432.39ZM1674.43 305.053V388.686H1552.42C1483.55 388.686 1432.39 339.49 1432.39 270.616V148.611H1516.02V250.938C1516.02 285.375 1537.67 305.053 1572.1 305.053H1674.43ZM1516.02 148.611V64.9789H1638.02C1706.9 64.9789 1758.06 114.174 1758.06 183.048V305.053H1674.43V202.727C1674.43 168.29 1652.78 148.611 1618.35 148.611H1516.02Z" fill="#F0FAFC"/>
<path d="M953.475 381.72H866.722V65.1044H953.475V101.199C969.939 75.8693 1002.87 58.1388 1044.03 58.1388C1120.65 58.1388 1166.24 113.863 1166.24 196.183V381.72H1079.49V210.748C1079.49 165.155 1059.86 137.293 1023.76 137.293C983.87 137.293 953.475 166.422 953.475 227.212V381.72Z" fill="#F0FAFC"/>
<path fill-rule="evenodd" clip-rule="evenodd" d="M748.306 278.504H838.859C819.862 342.46 757.172 388.686 676.751 388.686C579.867 388.686 510.844 319.03 510.844 222.779C510.844 128.428 581.133 58.1388 677.384 58.1388C770.47 58.1388 847.091 124.628 842.658 243.676H595.697C599.497 281.037 627.359 313.331 681.184 313.331C711.579 313.331 738.175 300.033 748.306 278.504ZM674.851 128.428C704.613 128.428 736.908 144.258 747.673 186.685H598.864C607.096 151.857 634.958 128.428 674.851 128.428Z" fill="#F0FAFC"/>
<path d="M3.06152 381.72H89.8143V227.212C89.8143 166.422 115.777 137.293 153.138 137.293C187.332 137.293 202.53 165.788 202.53 212.647V381.72H289.282V227.212C289.282 166.422 315.245 137.293 352.606 137.293C386.8 137.293 401.998 165.788 401.998 212.647V381.72H488.751V198.083C488.751 112.597 445.691 58.1388 370.336 58.1388C334.242 58.1388 291.815 77.1358 272.185 116.396C253.188 79.6687 220.26 58.1388 174.034 58.1388C135.407 58.1388 106.912 76.5025 89.8143 101.199V65.1044H3.06152V381.72Z" fill="#F0FAFC"/>
</svg>

<svg xmlns="http://www.w3.org/2000/svg" width="1761" height="390" fill="none" viewBox="0 0 1761 390"><path fill="#f0fafc" d="M1432.39 148.611V64.979H1321.2V1.025h-83.63v63.954h-59.03v83.632h59.03v122.005c0 68.874 52.15 118.07 121.02 118.07h54.12v-83.633h-34.44c-34.44 0-57.07-19.678-57.07-54.115V148.611zm242.04 156.442v83.633h-122.01c-68.87 0-120.03-49.196-120.03-118.07V148.611h83.63v102.327c0 34.437 21.65 54.115 56.08 54.115zm-158.41-156.442V64.979h122c68.88 0 120.04 49.195 120.04 118.069v122.005h-83.63V202.727c0-34.437-21.65-54.116-56.08-54.116zM953.475 381.72h-86.753V65.104h86.753V101.2c16.464-25.33 49.395-43.06 90.555-43.06 76.62 0 122.21 55.724 122.21 138.044V381.72h-86.75V210.748c0-45.593-19.63-73.455-55.73-73.455-39.89 0-70.285 29.129-70.285 89.919z"/><path fill="#f0fafc" fill-rule="evenodd" d="M748.306 278.504h90.553c-18.997 63.956-81.687 110.182-162.108 110.182-96.884 0-165.907-69.656-165.907-165.907 0-94.351 70.289-164.64 166.54-164.64 93.086 0 169.707 66.489 165.274 185.537H595.697c3.8 37.361 31.662 69.655 85.487 69.655 30.395 0 56.991-13.298 67.122-34.827m-73.455-150.076c29.762 0 62.057 15.83 72.822 58.257H598.864c8.232-34.828 36.094-58.257 75.987-58.257" clip-rule="evenodd"/><path fill="#f0fafc" d="M3.062 381.72h86.752V227.212c0-60.79 25.963-89.919 63.324-89.919 34.194 0 49.392 28.495 49.392 75.354V381.72h86.752V227.212c0-60.79 25.963-89.919 63.324-89.919 34.194 0 49.392 28.495 49.392 75.354V381.72h86.753V198.083c0-85.486-43.06-139.944-118.415-139.944-36.094 0-78.521 18.997-98.151 58.257-18.997-36.727-51.925-58.257-98.151-58.257-38.627 0-67.122 18.363-84.22 43.06V65.104H3.062z"/></svg>
